X:53
T:La valse des jouets
C:Michel Faubert
I:Quebec
Q:1/4=126
M:3/4     %Meter
K:D
f |:fe fg fe |dB AF Df |fe fg fe |
dB AF De |ed ef ed |c3 d cB |AE AB (3cBA
|1dB AF Df :|2d2 dA (3ABc
|:dA FA GA |B3 G Bd |
cA Bc de |f3 f df |bf df bf |g2 e2 d2 |
cA ce ag |f2 d2 c2 |BF FF BF |G2 e2 d2 |
cB AG FE |F4 F2 |GF GA Bc |de f3 f |
ge ce BA |1d4 (3ABc :|2d6 |]

